src/OnboardingSPA/static/icons/reload.svg

<svg fill="none" height="14" viewBox="0 0 14 14" width="14" xmlns="http://www.w3.org/2000/svg"><path d="m11.9425 2.05625c-1.2696-1.26875-3.01192-2.05625-4.94688-2.05625-3.86992 0-6.99562 3.1325-6.99562 7s3.1257 7 6.99562 7c3.26578 0 5.98878-2.2312 6.76798-5.25h-1.8211c-.718 2.0387-2.6617 3.5-4.94688 3.5-2.89806 0-5.25328-2.35375-5.25328-5.25s2.35522-5.25 5.25328-5.25c1.45341 0 2.74922.60375 3.69478 1.5575l-2.81923 2.8175h6.12883v-6.125z" fill="#6d6d6d"/></svg>

<svg width="14" height="14" viewBox="0 0 14 14" fill="none" xmlns="http://www.w3.org/2000/svg">
<path d="M11.9425 2.05625C10.6729 0.7875 8.93058 0 6.99562 0C3.1257 0 0 3.1325 0 7C0 10.8675 3.1257 14 6.99562 14C10.2614 14 12.9844 11.7688 13.7636 8.75H11.9425C11.2245 10.7887 9.2808 12.25 6.99562 12.25C4.09756 12.25 1.74234 9.89625 1.74234 7C1.74234 4.10375 4.09756 1.75 6.99562 1.75C8.44903 1.75 9.74484 2.35375 10.6904 3.3075L7.87117 6.125H14V0L11.9425 2.05625Z" fill="#6D6D6D"/>
</svg>
